bundles/org.openhab.ui.iconset.classic/src/main/resources/icons/garagedoor-100.svg

<?xml version="1.0" encoding="UTF-8"?>
<svg enable-background="new 0 0 64 64" viewBox="0 0 64 64" xmlns="http://www.w3.org/2000/svg">
 <path d="m55.5 53.5v-35h-47v35h-5v-40h57v40z" fill="#f0f0f0"/>
 <path d="m60 14v39h-4v-35h-48v35h-4v-39h56m1-1h-58v41h6v-35h46v35h6v-41z" fill="#c8c8c8"/>
 <path d="m9.5 19.5h15v11h-15z" fill="#282828"/>
 <path d="m24 20v10h-14v-10h14m1-1h-16v12h16v-12z" fill="#3c3c3c"/>
 <path d="m24.5 19.5h15v11h-15z" fill="#282828"/>
 <path d="m39 20v10h-14v-10h14m1-1h-16v12h16v-12z" fill="#3c3c3c"/>
 <path d="m39.5 19.5h15v11h-15z" fill="#282828"/>
 <path d="m54 20v10h-14v-10h14m1-1h-16v12h16v-12z" fill="#3c3c3c"/>
 <path d="m9.5 30.5h15v11h-15z" fill="#282828"/>
 <path d="m24 31v10h-14v-10h14m1-1h-16v12h16v-12z" fill="#3c3c3c"/>
 <path d="m24.5 30.5h15v11h-15z" fill="#282828"/>
 <path d="m39 31v10h-14v-10h14m1-1h-16v12h16v-12z" fill="#3c3c3c"/>
 <path d="m39.5 30.5h15v11h-15z" fill="#282828"/>
 <path d="m54 31v10h-14v-10h14m1-1h-16v12h16v-12z" fill="#3c3c3c"/>
 <path d="m9.5 41.5h15v11h-15z" fill="#282828"/>
 <path d="m24 42v10h-14v-10h14m1-1h-16v12h16v-12z" fill="#3c3c3c"/>
 <path d="m24.5 41.5h15v11h-15z" fill="#282828"/>
 <path d="m39 42v10h-14v-10h14m1-1h-16v12h16v-12z" fill="#3c3c3c"/>
 <path d="m39.5 41.5h15v11h-15z" fill="#282828"/>
 <path d="m54 42v10h-14v-10h14m1-1h-16v12h16v-12z" fill="#3c3c3c"/>
</svg>

<svg viewBox="0 0 64 64" xmlns="http://www.w3.org/2000/svg"><path d="M55.5 53.5v-35h-47v35h-5v-40h57v40z" fill="#f0f0f0"/><path d="M60 14v39h-4V18H8v35H4V14h56m1-1H3v41h6V19h46v35h6V13z" fill="#c8c8c8"/><path d="M9.5 19.5h15v11h-15z" fill="#282828"/><path d="M24 20v10H10V20h14m1-1H9v12h16V19z" fill="#3c3c3c"/><path d="M24.5 19.5h15v11h-15z" fill="#282828"/><path d="M39 20v10H25V20h14m1-1H24v12h16V19z" fill="#3c3c3c"/><path d="M39.5 19.5h15v11h-15z" fill="#282828"/><path d="M54 20v10H40V20h14m1-1H39v12h16V19z" fill="#3c3c3c"/><path d="M9.5 30.5h15v11h-15z" fill="#282828"/><path d="M24 31v10H10V31h14m1-1H9v12h16V30z" fill="#3c3c3c"/><path d="M24.5 30.5h15v11h-15z" fill="#282828"/><path d="M39 31v10H25V31h14m1-1H24v12h16V30z" fill="#3c3c3c"/><path d="M39.5 30.5h15v11h-15z" fill="#282828"/><path d="M54 31v10H40V31h14m1-1H39v12h16V30z" fill="#3c3c3c"/><path d="M9.5 41.5h15v11h-15z" fill="#282828"/><path d="M24 42v10H10V42h14m1-1H9v12h16V41z" fill="#3c3c3c"/><path d="M24.5 41.5h15v11h-15z" fill="#282828"/><path d="M39 42v10H25V42h14m1-1H24v12h16V41z" fill="#3c3c3c"/><path d="M39.5 41.5h15v11h-15z" fill="#282828"/><path d="M54 42v10H40V42h14m1-1H39v12h16V41z" fill="#3c3c3c"/></svg>
